packages/core/src/svgs/cirus.svg

<svg width="24" height="24" viewBox="0 0 24 24" fill="none" xmlns="http://www.w3.org/2000/svg">
<g clip-path="url(#clip0_31_8390)">
<path d="M0 0H24V24H0V0Z" fill="#F0F3FA"/>
<path d="M5.16011 11.606C6.12868 12.6517 7.84296 13.4917 10.2601 14.1131L10.483 14.1688L10.7101 14.2245L10.9415 14.2802L11.0401 14.3017L11.2372 14.3488L11.4772 14.4088L11.713 14.4688L11.8972 14.516L12.0772 14.5674L12.2487 14.6145L12.4244 14.666L12.5958 14.7131L12.7544 14.7645L12.8358 14.7902L12.9944 14.8417L13.1101 14.8802L13.2215 14.9188L13.4058 14.9831L13.4401 14.996L13.6201 15.0602L13.7915 15.1245L13.8558 15.1545L13.9844 15.206L14.0487 15.2317L14.1687 15.2874C14.8544 15.5917 15.3515 15.9131 15.6472 16.2431C16.0801 16.7231 16.0715 17.2374 15.5358 17.8845C14.5529 18.4753 13.4374 18.8098 12.2915 18.8574C12.1668 18.5649 12.007 18.2886 11.8158 18.0345C11.7087 17.8888 11.5844 17.7345 11.4472 17.5802L11.3787 17.5031L11.2887 17.4045L11.1901 17.3017L11.0915 17.1988C10.922 17.0268 10.7476 16.8596 10.5687 16.6974L10.4744 16.6117L10.3458 16.5002L10.2172 16.3888L10.0887 16.2774L9.95153 16.1617L9.88296 16.106L9.73725 15.9902L9.59153 15.8702L9.40296 15.7245L9.21011 15.5745L9.05154 15.4502L8.88439 15.3302L8.71725 15.2017L8.50296 15.0474L8.28011 14.8888L8.10011 14.7602L7.91582 14.6317L7.72725 14.5031L7.43582 14.3017L7.23439 14.1731L7.03296 14.036L6.82725 13.8988L6.56154 13.7274L6.29154 13.556L5.95725 13.3417L5.73011 13.2002L5.38725 12.986L5.19011 12.8617C5.14426 12.485 5.12993 12.1051 5.14725 11.726L5.16011 11.606Z" fill="url(#paint0_linear_31_8390)"/>
<path d="M5.53711 14.2412L5.65711 14.3141L5.97425 14.5198L6.17997 14.6526L6.38568 14.7855L6.58282 14.9184L6.77997 15.0469L6.96854 15.1755L7.15711 15.3041L7.34139 15.4326L7.52139 15.5612L7.69711 15.6812L7.86854 15.8055L8.03997 15.9255L8.20282 16.0455L8.36139 16.1655L8.59711 16.3369L8.81997 16.5126L8.96568 16.6284L9.10711 16.7398L9.24425 16.8512L9.37282 16.9584L9.4414 17.0141L9.56997 17.1212L9.68997 17.2284L9.80997 17.3312L9.92568 17.4341L9.9814 17.4855L10.0928 17.5884L10.2 17.6869L10.2985 17.7855L10.4271 17.9141L10.4914 17.9784L10.5814 18.0769C10.81 18.3202 11.0192 18.581 11.2071 18.8569C9.92284 18.7008 8.70895 18.1845 7.70564 17.3678C6.70233 16.551 5.95054 15.4671 5.53711 14.2412Z" fill="url(#paint1_linear_31_8390)"/>
<path d="M6.83155 7.51698C6.80155 7.98412 6.91726 8.43412 7.19155 8.85841C7.59441 9.50127 8.33155 10.0413 9.40726 10.5127L9.48869 10.547L9.63012 10.607C9.90012 10.7141 10.1915 10.8213 10.5044 10.9241L10.6373 10.967L10.8087 11.0227L10.8944 11.0484L11.0658 11.0998L11.1515 11.1256L11.3358 11.177L11.4258 11.1984L11.5201 11.2241L11.7044 11.2756L11.803 11.297L11.9958 11.3441L12.1887 11.3913L12.4373 11.4513L12.6515 11.5027L12.8573 11.5541L13.063 11.6056L13.2644 11.6613L13.4615 11.7127L13.6544 11.7684L13.843 11.8241C16.513 12.6384 17.9315 13.6927 18.1973 15.0084C17.8844 15.6513 17.4687 16.2384 16.9801 16.7484C16.9289 16.3025 16.7332 15.8856 16.423 15.5613C16.0669 15.1873 15.6495 14.8771 15.1887 14.6441L15.1158 14.6013L14.9915 14.537L14.7773 14.4341L14.6658 14.3827L14.533 14.3227L14.4601 14.2927L14.3915 14.2627L14.2458 14.2027L14.173 14.1727L14.023 14.1127C13.8044 14.027 13.573 13.9498 13.333 13.8684L13.2087 13.8298L13.0373 13.7741L12.8573 13.7184L12.6773 13.667L12.3944 13.5856L12.2015 13.5341L11.9573 13.4698L11.7044 13.4056L11.6015 13.3798L11.3915 13.3284L11.0358 13.2427L10.8387 13.1998L10.6501 13.1527L10.4615 13.1013L10.3673 13.0798L10.1873 13.0284L10.0073 12.9813L9.83155 12.9298C9.80295 12.9213 9.77438 12.9128 9.74583 12.9041L9.57441 12.8527L9.40298 12.8013C9.35004 12.7844 9.29718 12.7672 9.24441 12.7498L9.08155 12.6941L8.92298 12.6384L8.84583 12.6127L8.69583 12.557C8.62131 12.529 8.54702 12.5005 8.47298 12.4713L8.33155 12.4156C8.23661 12.3822 8.14361 12.3436 8.05298 12.2998L7.92012 12.2441L7.85155 12.2141L7.72298 12.1541C6.49298 11.5713 5.73012 10.8984 5.40869 10.1227C5.68096 9.17684 6.15466 8.30109 6.79726 7.55555L6.83155 7.5127V7.51698Z" fill="url(#paint2_linear_31_8390)"/>
<path d="M11.9786 5.14308H12.1714C11.6572 5.82879 11.7729 6.70736 12.5743 7.71879C12.6857 7.86451 12.8143 8.01022 12.96 8.16022L13.0286 8.23736L13.1272 8.33594L13.2557 8.46451L13.3286 8.53308L13.4357 8.63594L13.5472 8.73879C13.6714 8.84594 13.7957 8.95736 13.9329 9.06879L14.0357 9.15451L14.1643 9.26165L14.3014 9.36879L14.4386 9.48022L14.5843 9.59165L14.73 9.70308L14.88 9.81451L15.1157 9.98594L15.2786 10.1017L15.5272 10.2731L15.6986 10.3931L15.7843 10.4531L15.96 10.5731L16.05 10.6331L16.2343 10.7531L16.4186 10.8774L16.6114 10.9974L16.8043 11.1259L17.0057 11.2502L17.2072 11.3788L17.4129 11.5031L17.6272 11.6317L17.8414 11.7602L18.0557 11.8931L18.2786 12.0217L18.5057 12.1588L18.7372 12.2917L18.8572 12.3602C18.8314 12.7802 18.7714 13.1874 18.6729 13.5817C18.0257 12.6217 16.8129 11.8202 15.0643 11.1731L14.8929 11.1088C14.6657 11.0274 14.4257 10.9502 14.1772 10.8731L13.9929 10.8131L13.8 10.7574L13.6072 10.7017L13.5086 10.6759L13.3072 10.6202L13.2086 10.5945L13.0029 10.5431L12.69 10.4659L12.2872 10.3717L12.1029 10.3288L11.9186 10.2817L11.7386 10.2388L11.5672 10.1874L11.4814 10.1659L11.31 10.1145L11.2243 10.0931L11.0657 10.0417L10.98 10.0159L10.8257 9.96879L10.7486 9.94308L10.5986 9.89165L10.5257 9.86594L10.38 9.81451L10.3072 9.78879L10.1657 9.73736L10.1014 9.71165L10.0329 9.68165L9.9043 9.63022L9.83573 9.60451L9.70716 9.54879L9.44145 9.42451L9.35573 9.38165L9.24859 9.32594C8.7465 9.09625 8.31134 8.74222 7.9843 8.29736C7.60287 7.70594 7.7443 6.98165 8.49859 6.07736C9.55536 5.46321 10.7563 5.14078 11.9786 5.14308Z" fill="url(#paint3_linear_31_8390)"/>
<path d="M13.5644 5.27148C14.9535 5.59066 16.2092 6.33378 17.1574 7.39798C18.1057 8.46218 18.6997 9.79483 18.8572 11.2115L18.6129 11.0658L18.3129 10.8815L18.1115 10.7572L17.9144 10.6372L17.7215 10.5172L17.5372 10.3972L17.3529 10.2815L17.1686 10.1615L16.9972 10.0458L16.8215 9.93434L16.6501 9.81863L16.4872 9.7072L16.3244 9.59577L16.1658 9.48434L16.0115 9.3772L15.8615 9.26577L15.7115 9.15863L15.5701 9.05577L15.4286 8.94863L15.2915 8.84577L15.1629 8.74291L15.0344 8.64006L14.9058 8.54148L14.7858 8.44291L14.7258 8.39148L14.6101 8.2972L14.4986 8.19863L14.3915 8.10434L14.2886 8.01006L14.1858 7.92006L14.1129 7.8472L14.0401 7.78291L13.9544 7.69291L13.9072 7.65006L13.8644 7.60291L13.7786 7.5172L13.5644 7.2772L13.5129 7.2172L13.4486 7.13148L13.3801 7.05006C12.9429 6.47577 12.8401 6.06434 12.9815 5.78148C13.0672 5.61434 13.2386 5.45577 13.5086 5.31006L13.5644 5.28006V5.27148Z" fill="url(#paint4_linear_31_8390)"/>
</g>
<defs>
<linearGradient id="paint0_linear_31_8390" x1="5.14296" y1="11.606" x2="5.14296" y2="18.8574" gradientUnits="userSpaceOnUse">
<stop stop-color="#FF475A"/>
<stop offset="1" stop-color="#FF9A89"/>
</linearGradient>
<linearGradient id="paint1_linear_31_8390" x1="5.53711" y1="14.2412" x2="5.53711" y2="18.8569" gradientUnits="userSpaceOnUse">
<stop stop-color="#FF9A89"/>
<stop offset="1" stop-color="#FF475A"/>
</linearGradient>
<linearGradient id="paint2_linear_31_8390" x1="5.40869" y1="7.51698" x2="5.40869" y2="16.7484" gradientUnits="userSpaceOnUse">
<stop stop-color="#FF9A89"/>
<stop offset="1" stop-color="#FF475A"/>
</linearGradient>
<linearGradient id="paint3_linear_31_8390" x1="7.77859" y1="5.14308" x2="7.77859" y2="13.5817" gradientUnits="userSpaceOnUse">
<stop stop-color="#FF475A"/>
<stop offset="1" stop-color="#FF9A89"/>
</linearGradient>
<linearGradient id="paint4_linear_31_8390" x1="12.9215" y1="5.27577" x2="12.9215" y2="11.2072" gradientUnits="userSpaceOnUse">
<stop stop-color="#FF9A89"/>
<stop offset="1" stop-color="#FF475A"/>
</linearGradient>
<clipPath id="clip0_31_8390">
<rect width="24" height="24" fill="white"/>
</clipPath>
</defs>
</svg>

<svg xmlns="http://www.w3.org/2000/svg" width="24" height="24" fill="none" viewBox="0 0 24 24"><g clip-path="url(#a)"><path fill="#F0F3FA" d="M0 0h24v24H0z"/><path fill="url(#b)" d="M5.16 11.606c.969 1.046 2.683 1.886 5.1 2.507l.223.056.227.056.231.055.1.022.196.047.24.06.236.06.184.047.18.051.172.047.175.052.172.047.158.052.082.025.158.052.116.038.112.039.184.064.034.013.18.064.172.064.064.03.128.052.065.026.12.055c.685.305 1.182.626 1.478.956.433.48.425.994-.111 1.642a6.85 6.85 0 0 1-3.245.972 4 4 0 0 0-.475-.822 6 6 0 0 0-.369-.455l-.068-.077-.09-.099-.099-.102-.098-.103q-.255-.258-.523-.502l-.095-.085-.128-.112-.129-.111-.128-.112-.137-.115-.069-.056-.146-.116-.145-.12-.189-.145-.193-.15-.158-.125-.168-.12-.167-.128-.214-.155-.223-.158-.18-.129-.184-.128-.189-.129-.291-.201-.202-.129-.201-.137-.206-.137-.265-.172-.27-.171-.335-.214-.227-.142-.343-.214-.197-.124a7 7 0 0 1-.043-1.136z"/><path fill="url(#c)" d="m5.537 14.241.12.073.317.206.206.133.206.133.197.132.197.129.189.128.188.13.184.128.18.128.176.12.172.125.171.12.163.12.158.12.236.17.223.177.146.115.141.112.137.111.129.107.068.056.129.107.12.107.12.103.116.103.055.051.112.103.107.099.099.098.128.13.064.063.09.099q.344.365.626.78a6.86 6.86 0 0 1-5.67-4.616"/><path fill="url(#d)" d="M6.832 7.517c-.03.467.085.917.36 1.341.402.643 1.14 1.183 2.215 1.655l.082.034.141.06q.405.162.874.317l.133.043.172.056.085.025.172.052.085.026.185.051.09.021.094.026.184.052.099.021.193.047.193.047.248.06.215.052.205.051.206.052.201.055.197.052.193.055.189.056c2.67.814 4.089 1.869 4.354 3.184a6.9 6.9 0 0 1-1.217 1.74 2.06 2.06 0 0 0-.557-1.187 4.5 4.5 0 0 0-1.234-.917l-.073-.043-.124-.064-.215-.103-.111-.051-.133-.06-.073-.03-.069-.03-.145-.06-.073-.03-.15-.06c-.219-.086-.45-.163-.69-.245l-.124-.038-.172-.056-.18-.056-.18-.051-.283-.081-.193-.052-.244-.064-.253-.064-.103-.026-.21-.052-.355-.085-.197-.043-.189-.047-.189-.052-.094-.021-.18-.052-.18-.047-.175-.051-.086-.026-.172-.051-.171-.052-.159-.051-.162-.056-.159-.056-.077-.025-.15-.056-.223-.086-.141-.055a3 3 0 0 1-.279-.116l-.133-.056-.068-.03-.129-.06c-1.23-.583-1.993-1.256-2.314-2.031a6.8 6.8 0 0 1 1.388-2.567l.035-.043z"/><path fill="url(#e)" d="M11.979 5.143h.192c-.514.686-.398 1.564.403 2.576q.167.217.386.441l.069.077.098.099.129.129.073.068.107.103.111.103c.124.107.249.218.386.33l.103.086.128.107.137.107.138.111.145.112.146.111.15.112.236.17.163.117.248.171.172.12.085.06.176.12.09.06.184.12.185.124.192.12.193.129.202.124.201.129.206.124.214.129.214.128.215.133.223.129.227.137.231.133.12.068q-.038.63-.184 1.222c-.647-.96-1.86-1.762-3.609-2.409l-.171-.064a18 18 0 0 0-.716-.236l-.184-.06-.193-.056-.193-.055-.098-.026-.202-.056-.098-.025-.206-.052-.313-.077-.403-.094-.184-.043-.184-.047-.18-.043-.172-.052-.086-.021-.171-.052-.086-.02-.158-.052-.086-.026-.154-.047-.077-.026-.15-.051-.073-.026-.146-.051-.073-.026-.141-.052-.065-.025-.068-.03-.129-.052-.068-.025-.129-.056-.266-.124-.085-.043-.107-.056a3.24 3.24 0 0 1-1.265-1.029c-.381-.591-.24-1.315.515-2.22a6.9 6.9 0 0 1 3.48-.934"/><path fill="url(#f)" d="M13.564 5.271a6.87 6.87 0 0 1 5.293 5.94l-.244-.145-.3-.184-.201-.125-.198-.12-.193-.12-.184-.12-.184-.116-.184-.12-.172-.115-.175-.112-.172-.115-.163-.112-.163-.111-.158-.112-.154-.107-.15-.111-.15-.107-.142-.103-.141-.107-.138-.103-.128-.103-.129-.103-.128-.099-.12-.098-.06-.052-.116-.094L14.5 8.2l-.107-.095-.103-.094-.103-.09-.073-.073-.073-.064-.086-.09-.047-.043-.043-.047-.085-.086-.215-.24-.051-.06-.064-.086-.069-.08c-.437-.575-.54-.987-.399-1.27.086-.167.258-.325.528-.47l.055-.03z"/></g><defs><linearGradient id="b" x1="5.143" x2="5.143" y1="11.606" y2="18.857" gradientUnits="userSpaceOnUse"><stop stop-color="#FF475A"/><stop offset="1" stop-color="#FF9A89"/></linearGradient><linearGradient id="c" x1="5.537" x2="5.537" y1="14.241" y2="18.857" gradientUnits="userSpaceOnUse"><stop stop-color="#FF9A89"/><stop offset="1" stop-color="#FF475A"/></linearGradient><linearGradient id="d" x1="5.409" x2="5.409" y1="7.517" y2="16.748" gradientUnits="userSpaceOnUse"><stop stop-color="#FF9A89"/><stop offset="1" stop-color="#FF475A"/></linearGradient><linearGradient id="e" x1="7.779" x2="7.779" y1="5.143" y2="13.582" gradientUnits="userSpaceOnUse"><stop stop-color="#FF475A"/><stop offset="1" stop-color="#FF9A89"/></linearGradient><linearGradient id="f" x1="12.921" x2="12.921" y1="5.276" y2="11.207" gradientUnits="userSpaceOnUse"><stop stop-color="#FF9A89"/><stop offset="1" stop-color="#FF475A"/></linearGradient><clipPath id="a"><path fill="#fff" d="M0 0h24v24H0z"/></clipPath></defs></svg>
